app/assets/images/icons/email.svg

<?xml version="1.0" encoding="UTF-8" standalone="no"?>
<svg width="30px" height="30px" viewBox="0 0 30 30" version="1.1" xmlns="http://www.w3.org/2000/svg" xmlns:xlink="http://www.w3.org/1999/xlink">
    <!-- Generator: Sketch 3.7.2 (28276) - http://www.bohemiancoding.com/sketch -->
    <title>email</title>
    <desc>Created with Sketch.</desc>
    <defs></defs>
    <g id="Icons" stroke="none" stroke-width="1" fill="none" fill-rule="evenodd">
        <g id="email" fill="#050505">
            <path d="M15,5 L26.0007252,5 C28.2094637,5 30,6.79246765 30,8.99922997 L30,21.00077 C30,23.2094838 28.2132053,25 26.0007252,25 L3.9992748,25 C1.79053632,25 0,23.2075324 0,21.00077 L0,8.99406028 C0,8.99234265 4.33048379e-06,8.9906357 1.2981129e-05,8.98893938 C0.0055690651,6.78689792 1.79397059,5 3.9992748,5 L15,5 L15,5 Z M27.4147573,22.4159533 C27.7762553,22.0550993 28,21.5565843 28,21.0059397 L28,8.99406028 C28,7.89451376 27.1059106,7 26.0029953,7 L23.0426764,7 L22.5853529,7 L3.99700466,7 C2.89408944,7 2,7.89451376 2,8.99406028 L2,21.0059397 C2,22.1072288 2.89497885,23 3.99700466,23 L26.0029953,23 C26.554453,23 27.0537041,22.7763716 27.4150909,22.4152998 L27.4147573,22.4159533 Z M14.9709511,13.8565674 C15.3890961,13.8547353 15.8703267,13.6778211 16.0215659,13.6218917 C18.7178478,12.6247854 25.8315466,10 26,10 C26.5522847,10 27,10.4477153 27,11 C27,11.4119002 26.7509654,11.7656352 26.3952487,11.9188525 C26.354733,11.9363037 18.3959477,14.7998817 16.0238424,15.6533034 C15.9034954,15.6940557 15.4093199,15.8406953 14.9709511,15.8417358 C14.5093825,15.8428315 14.102755,15.6961722 13.9761576,15.6533034 C11.6040523,14.7998817 3.64526696,11.9363037 3.60475128,11.9188525 C3.24903462,11.7656352 3,11.4119002 3,11 C3,10.4477153 3.44771525,10 4,10 C4.16845339,10 11.2821522,12.6247854 13.9784341,13.6218917 C14.1399171,13.6816093 14.5244841,13.8585235 14.9709511,13.8565674 Z" id="Combined-Shape"></path>
        </g>
    </g>
</svg>

<?xml version="1.0" encoding="UTF-8" standalone="no"?>
<svg width="30" height="30" viewBox="0 0 30 30" xmlns="http://www.w3.org/2000/svg">
  <path d="M15 5h11a4 4 0 0 1 4 4v12c0 2.21-1.787 4-4 4H4a4 4 0 0 1-4-4V8.995 8.99A4 4 0 0 1 4 5h11zm12.415 17.416c.361-.36.585-.86.585-1.41V8.994C28 7.894 27.106 7 26.003 7H3.997A1.997 1.997 0 0 0 2 8.994v12.012C2 22.107 2.895 23 3.997 23h22.006c.551 0 1.05-.224 1.412-.585v.001zm-12.444-8.56c.418-.001.9-.178 1.05-.234C18.719 12.625 25.832 10 26 10a1 1 0 0 1 .395 1.919c-.04.017-8 2.88-10.371 3.734-.12.041-.615.188-1.053.189-.462 0-.868-.146-.995-.189-2.372-.853-10.33-3.717-10.371-3.734A1 1 0 0 1 4 10c.168 0 7.282 2.625 9.978 3.622.162.06.546.237.993.235z" fill="#050505" fill-rule="evenodd"/>
</svg>
